app/client/src/assets/icons/blueprintjs/20px/emoji.svg

<?xml version="1.0" encoding="UTF-8"?>
<svg width="20px" height="20px" viewBox="0 0 20 20" version="1.1" xmlns="http://www.w3.org/2000/svg" xmlns:xlink="http://www.w3.org/1999/xlink">
    <title>emoji</title>
    <g id="emoji" stroke="none" stroke-width="1" fill="none" fill-rule="evenodd">
        <path d="M10,0 C15.5228475,0 20,4.4771525 20,10 C20,15.5228475 15.5228475,20 10,20 C4.4771525,20 0,15.5228475 0,10 C0,4.4771525 4.4771525,0 10,0 Z M10,2 C5.581722,2 2,5.581722 2,10 C2,14.418278 5.581722,18 10,18 C14.418278,18 18,14.418278 18,10 C18,5.581722 14.418278,2 10,2 Z M6,10 L6.01497789,10.2152441 C6.21861044,12.4196351 7.92474821,14 10,14 C12.1421954,14 13.8910789,12.3160315 13.9951047,10.1996403 L14,10 L16,10 L15.9873992,10.23818 C15.7544954,13.5523666 13.1630854,16 10,16 C6.76160306,16 4.12242824,13.4344251 4.00413847,10.2249383 L4,10 L6,10 Z M7.5,6 C8.32842712,6 9,6.67157288 9,7.5 C9,8.32842712 8.32842712,9 7.5,9 C6.67157288,9 6,8.32842712 6,7.5 C6,6.67157288 6.67157288,6 7.5,6 Z M12.5,6 C13.3284271,6 14,6.67157288 14,7.5 C14,8.32842712 13.3284271,9 12.5,9 C11.6715729,9 11,8.32842712 11,7.5 C11,6.67157288 11.6715729,6 12.5,6 Z" id="Shape" fill="#000000"></path>
    </g>
</svg>

<svg xmlns="http://www.w3.org/2000/svg" width="20" height="20"><path fill-rule="evenodd" d="M10 0c5.523 0 10 4.477 10 10s-4.477 10-10 10S0 15.523 0 10 4.477 0 10 0Zm0 2a8 8 0 1 0 0 16 8 8 0 0 0 0-16Zm-4 8 .015.215C6.219 12.42 7.925 14 10 14a4 4 0 0 0 3.995-3.8L14 10h2l-.013.238C15.754 13.552 13.163 16 10 16a6 6 0 0 1-5.996-5.775L4 10h2Zm1.5-4a1.5 1.5 0 1 1 0 3 1.5 1.5 0 0 1 0-3Zm5 0a1.5 1.5 0 1 1 0 3 1.5 1.5 0 0 1 0-3Z"/></svg>
